Numix/64/mimetypes/x-office-calendar.svg

<?xml version="1.0" encoding="UTF-8" standalone="no"?>
<svg
   xmlns:dc="http://purl.org/dc/elements/1.1/"
   xmlns:cc="http://creativecommons.org/ns#"
   xmlns:rdf="http://www.w3.org/1999/02/22-rdf-syntax-ns#"
   xmlns:svg="http://www.w3.org/2000/svg"
   xmlns="http://www.w3.org/2000/svg"
   xmlns:sodipodi="http://sodipodi.sourceforge.net/DTD/sodipodi-0.dtd"
   xmlns:inkscape="http://www.inkscape.org/namespaces/inkscape"
   width="64px"
   height="64px"
   viewBox="0 0 64 64"
   version="1.1"
   id="svg2"
   inkscape:version="0.91 r13725"
   sodipodi:docname="x-office-calendar.svg">
  <metadata
     id="metadata17">
    <rdf:RDF>
      <cc:Work
         rdf:about="">
        <dc:format>image/svg+xml</dc:format>
        <dc:type
           rdf:resource="http://purl.org/dc/dcmitype/StillImage" />
      </cc:Work>
    </rdf:RDF>
  </metadata>
  <defs
     id="defs15" />
  <sodipodi:namedview
     pagecolor="#ffffff"
     bordercolor="#666666"
     borderopacity="1"
     objecttolerance="10"
     gridtolerance="10"
     guidetolerance="10"
     inkscape:pageopacity="0"
     inkscape:pageshadow="2"
     inkscape:window-width="1366"
     inkscape:window-height="704"
     id="namedview13"
     showgrid="false"
     inkscape:object-nodes="true"
     inkscape:zoom="1"
     inkscape:cx="23.898197"
     inkscape:cy="24.713916"
     inkscape:window-x="0"
     inkscape:window-y="27"
     inkscape:window-maximized="1"
     inkscape:current-layer="svg2">
    <inkscape:grid
       type="xygrid"
       id="grid4145" />
  </sodipodi:namedview>
  <path
     inkscape:connector-curvature="0"
     style="fill:#dc302e;fill-opacity:1;fill-rule:nonzero;stroke:none"
     d="M 10.671875,0 C 9.296875,0 8,1.355469 8,2.789062 L 8,61.210938 C 8,62.566406 9.375,64 10.671875,64 l 42.65625,0 C 54.625,64 56,62.566406 56,61.210938 L 56,18 38,0 Z m 0,0"
     id="path5" />
  <path
     sodipodi:nodetypes="csccsssccssssccscsscsccscccccssscsccccccccccssssscsc"
     inkscape:connector-curvature="0"
     id="path11"
     d="M 20.585938,24.007812 C 20.023438,24.070312 20,24.34375 20,25.34375 L 20,29 l 24,0 0,-3.65625 c 0,-1.335938 0,-1.335938 -1.335938,-1.335938 l -21.328124,0 c -0.335938,0 -0.5625,-0.01562 -0.75,0 z M 20,30 20,46.664062 C 20,48 20,48 21.335938,48 l 21.328124,0 C 44,48 44,48 44,46.664062 L 44,30 Z m 16.085938,3.036 c 0.867187,0 1.640624,0.21875 2.289062,0.625 0.65625,0.40625 1.148438,0.976562 1.5,1.75 0.351562,0.773437 0.539062,1.6875 0.539062,2.75 0,2.304687 -0.476562,4.03125 -1.453124,5.164062 C 37.976562,44.465687 36.484375,45.036 34.5,45.036 c -0.703125,0 -1.21875,-0.05469 -1.585938,-0.125 l 0,-1.960938 c 0.453126,0.117188 0.921876,0.171875 1.421876,0.171875 0.835937,0 1.5,-0.140625 2.039062,-0.375 0.539062,-0.25 0.960938,-0.609375 1.25,-1.125 0.289062,-0.523437 0.453125,-1.257813 0.5,-2.171875 l -0.125,0 c -0.3125,0.507812 -0.671875,0.84375 -1.085938,1.046875 -0.40625,0.203125 -0.882812,0.328125 -1.5,0.328125 -1.023437,0 -1.859374,-0.34375 -2.453124,-1 -0.59375,-0.65625 -0.875,-1.539062 -0.875,-2.703125 0,-1.257813 0.367187,-2.273437 1.078124,-3 C 33.890625,33.387562 34.84375,33.036 36.085938,33.036 Z M 27.125,33 29,33 l 0,12 -2,0 0,-9.3 -2.46094,2.098438 -1.203124,-1.5 z m 8.664062,2.036 c -0.34375,0.07031 -0.65625,0.234374 -0.875,0.5 C 34.625,35.887562 34.5,36.418812 34.5,37.082874 c 0,0.5625 0.109375,1 0.375,1.328126 0.265625,0.328124 0.671875,0.5 1.210938,0.5 0.5,0 0.929687,-0.171876 1.289062,-0.5 0.359375,-0.328126 0.539062,-0.695313 0.539062,-1.125 0,-0.632813 -0.15625,-1.1875 -0.5,-1.625 -0.328124,-0.4375 -0.765624,-0.625 -1.289062,-0.625 -0.132812,0 -0.21875,-0.02344 -0.335938,0 z"
     style="fill:#ffffff;fill-opacity:1;fill-rule:nonzero;stroke:none" />
  <path
     inkscape:connector-curvature="0"
     style="fill:#000000;fill-opacity:0.19607801;fill-rule:nonzero;stroke:none"
     d="m 42,18 14,14 0,-14 z m 0,0"
     id="path7" />
  <path
     inkscape:connector-curvature="0"
     style="fill:#ffffff;fill-opacity:0.39215698;fill-rule:nonzero;stroke:none"
     d="M 38,0 55.984375,18 40.757812,18 C 39.410156,18 38,16.574219 38,15.226562 Z m 0,0"
     id="path9" />
</svg>

<svg xmlns="http://www.w3.org/2000/svg" viewBox="0 0 64 64">
 <path d="m 10.672 0 c -1.375 0 -2.672 1.355 -2.672 2.789 l 0 58.42 c 0 1.355 1.375 2.789 2.672 2.789 l 42.656 0 c 1.297 0 2.672 -1.434 2.672 -2.789 l 0 -43.21 -18 -18 m -27.328 0" style="fill:#dc302e;fill-opacity:1;stroke:none;fill-rule:nonzero"/>
 <path d="m 20.586 24.01 c -0.563 0.063 -0.586 0.336 -0.586 1.336 l 0 3.656 l 24 0 0 -3.656 c 0 -1.336 0 -1.336 -1.336 -1.336 l -21.328 0 c -0.336 0 -0.563 -0.016 -0.75 0 z m -0.586 5.992 0 16.664 c 0 1.336 0 1.336 1.336 1.336 l 21.328 0 c 1.336 0 1.336 0 1.336 -1.336 l 0 -16.664 m -7.914 3.036 c 0.867 0 1.641 0.219 2.289 0.625 0.656 0.406 1.148 0.977 1.5 1.75 0.352 0.773 0.539 1.688 0.539 2.75 0 2.305 -0.477 4.03 -1.453 5.164 c -0.984 1.141 -2.477 1.711 -4.461 1.711 c -0.703 0 -1.219 -0.055 -1.586 -0.125 l 0 -1.961 c 0.453 0.117 0.922 0.172 1.422 0.172 0.836 0 1.5 -0.141 2.039 -0.375 0.539 -0.25 0.961 -0.609 1.25 -1.125 0.289 -0.523 0.453 -1.258 0.5 -2.172 l -0.125 0 c -0.313 0.508 -0.672 0.844 -1.086 1.047 -0.406 0.203 -0.883 0.328 -1.5 0.328 -1.023 0 -1.859 -0.344 -2.453 -1 -0.594 -0.656 -0.875 -1.539 -0.875 -2.703 0 -1.258 0.367 -2.273 1.078 -3 c 0.727 -0.734 1.68 -1.086 2.922 -1.086 m -8.961 -0.036 1.875 0 l 0 12 -2 0 0 -9.3 -2.461 2.098 -1.203 -1.5 z m 8.664 2.036 c -0.344 0.07 -0.656 0.234 -0.875 0.5 c -0.289 0.352 -0.414 0.883 -0.414 1.547 c 0 0.563 0.109 1 0.375 1.328 0.266 0.328 0.672 0.5 1.211 0.5 0.5 0 0.93 -0.172 1.289 -0.5 0.359 -0.328 0.539 -0.695 0.539 -1.125 0 -0.633 -0.156 -1.188 -0.5 -1.625 -0.328 -0.438 -0.766 -0.625 -1.289 -0.625 -0.133 0 -0.219 -0.023 -0.336 0 z" style="fill:#fff;fill-opacity:1;stroke:none;fill-rule:nonzero"/>
 <path d="m 42 18 14 14 0 -14 z m 0 0" style="fill:#000;fill-opacity:0.196;stroke:none;fill-rule:nonzero"/>
 <path d="m 38 0 17.984 18 -15.227 0 c -1.348 0 -2.758 -1.426 -2.758 -2.773 m 0 -15.227" style="fill:#fff;fill-opacity:0.392;stroke:none;fill-rule:nonzero"/>
</svg>
